public/library/reown-text-light.svg

<svg xmlns="http://www.w3.org/2000/svg" width="180" height="48" fill="none" viewBox="0 0 180 48"><path fill="#202020" d="M28 14c0-7.732 6.268-14 14-14h20c7.732 0 14 6.268 14 14v20c0 7.732-6.268 14-14 14H42c-7.732 0-14-6.268-14-14z"/><path fill="#fff" d="m46.816 33 7.018-19h2.06l-7.017 19z"/><path fill="#202020" d="M0 13C0 5.82 5.82 0 13 0s13 5.82 13 13v22c0 7.18-5.82 13-13 13S0 42.18 0 35z"/><path fill="#fff" d="M11.75 29.999v-2.5h2.5v2.5z"/><path fill="#202020" d="M78 24c0-13.255 10.055-24 22.459-24h57.082C169.945 0 180 10.745 180 24s-10.055 24-22.459 24h-57.082C88.055 48 78 37.255 78 24"/><path fill="#fff" d="M148.106 29.874V18.786h1.958v1.672c.704-1.232 2.134-1.958 3.718-1.958 2.398 0 4.07 1.518 4.07 4.466v6.908h-1.936v-6.798c0-1.936-1.1-2.948-2.706-2.948-1.738 0-3.146 1.386-3.146 3.344v6.402zM135.761 29.874l-2.046-11.088h1.848l1.452 9.152 1.914-6.028h1.826l1.892 5.962 1.474-9.086h1.848l-2.046 11.088h-2.2l-1.87-5.764-1.892 5.764zM127.113 30.16c-3.366 0-5.346-2.508-5.346-5.83 0-3.3 1.98-5.83 5.346-5.83s5.346 2.53 5.346 5.83c0 3.322-1.98 5.83-5.346 5.83m0-1.628c2.42 0 3.344-2.068 3.344-4.224 0-2.134-.924-4.18-3.344-4.18s-3.344 2.046-3.344 4.18c0 2.156.924 4.224 3.344 4.224M114.842 30.16c-3.256 0-5.302-2.486-5.302-5.83 0-3.322 2.046-5.83 5.302-5.83 2.75 0 5.17 1.562 4.906 6.336h-8.206c.154 2.046 1.1 3.718 3.3 3.718 1.474 0 2.442-.902 2.772-1.936h1.936c-.308 1.848-2.046 3.542-4.708 3.542m-3.256-6.798h6.27c-.154-2.222-1.188-3.256-3.014-3.256-2.002 0-2.992 1.452-3.256 3.256M100.148 29.874V18.786h2.002v1.87c.704-1.232 1.914-1.87 3.168-1.87h2.662v1.87h-2.816c-1.76 0-3.014 1.144-3.014 3.366v5.852z"/></svg>

<svg width="180" height="48" viewBox="0 0 180 48" fill="none" xmlns="http://www.w3.org/2000/svg">
<path d="M28 14C28 6.26801 34.268 0 42 0H62C69.732 0 76 6.26801 76 14V34C76 41.732 69.732 48 62 48H42C34.268 48 28 41.732 28 34V14Z" fill="#202020"/>
<path d="M46.8164 33L53.8341 14H55.8946L48.8769 33H46.8164Z" fill="white"/>
<path d="M0 13C0 5.8203 5.8203 0 13 0C20.1797 0 26 5.8203 26 13V35C26 42.1797 20.1797 48 13 48C5.8203 48 0 42.1797 0 35V13Z" fill="#202020"/>
<path d="M11.75 29.999V27.499H14.25V29.999H11.75Z" fill="white"/>
<path d="M78 24C78 10.7452 88.0551 0 100.459 0H157.541C169.945 0 180 10.7452 180 24C180 37.2548 169.945 48 157.541 48H100.459C88.0551 48 78 37.2548 78 24Z" fill="#202020"/>
<path d="M148.106 29.874V18.786H150.064V20.458C150.768 19.226 152.198 18.5 153.782 18.5C156.18 18.5 157.852 20.018 157.852 22.966V29.874H155.916V23.076C155.916 21.14 154.816 20.128 153.21 20.128C151.472 20.128 150.064 21.514 150.064 23.472V29.874H148.106Z" fill="white"/>
<path d="M135.761 29.874L133.715 18.786H135.563L137.015 27.938L138.929 21.91H140.755L142.647 27.872L144.121 18.786H145.969L143.923 29.874H141.723L139.853 24.11L137.961 29.874H135.761Z" fill="white"/>
<path d="M127.113 30.16C123.747 30.16 121.767 27.652 121.767 24.33C121.767 21.03 123.747 18.5 127.113 18.5C130.479 18.5 132.459 21.03 132.459 24.33C132.459 27.652 130.479 30.16 127.113 30.16ZM127.113 28.532C129.533 28.532 130.457 26.464 130.457 24.308C130.457 22.174 129.533 20.128 127.113 20.128C124.693 20.128 123.769 22.174 123.769 24.308C123.769 26.464 124.693 28.532 127.113 28.532Z" fill="white"/>
<path d="M114.842 30.16C111.586 30.16 109.54 27.674 109.54 24.33C109.54 21.008 111.586 18.5 114.842 18.5C117.592 18.5 120.012 20.062 119.748 24.836H111.542C111.696 26.882 112.642 28.554 114.842 28.554C116.316 28.554 117.284 27.652 117.614 26.618H119.55C119.242 28.466 117.504 30.16 114.842 30.16ZM111.586 23.362H117.856C117.702 21.14 116.668 20.106 114.842 20.106C112.84 20.106 111.85 21.558 111.586 23.362Z" fill="white"/>
<path d="M100.148 29.874V18.786H102.15V20.656C102.854 19.424 104.064 18.786 105.318 18.786H107.98V20.656H105.164C103.404 20.656 102.15 21.8 102.15 24.022V29.874H100.148Z" fill="white"/>
</svg>
